X:10
T:Polska efter John-Erik Mattson
Z:Lennart Sohlman, \"Alta, Sweden
R:Polska
Q:144
A:Digerberget, S.J\"amtland
O:Sweden
N:Efter v\"arml\"anningen Ferm, Handsj\"oby
M:3/4
L:1/8
K:A
A,>A, (3.C.A,.C E>(E | A>)A (3.c.A.c e>(e |\
f>)e d>c B>B | e>d (3.c.e.c A2 | \
A,>A, (3.C.A,.C E>(E | A>)A (3.c.A.c e>(e |
f>)e d>c B>A | (GB) A4 :: \
a>(a f>)(f d>)d | c>e ae cA |
Bc dE GB | A>A (3.c.A.c e2 | \
a>(a f>)(f d>)d | c>e ae cA | \
Bc dE GB | A2 A4 :|
